Catalina-light/actions/16/color-mode-invert-image.svg

<!DOCTYPE svg>
<svg version="1.1" viewBox="0 0 16 16" xmlns="http://www.w3.org/2000/svg">
    <defs>
        <style id="current-color-scheme" type="text/css">
            .ColorScheme-Text {
                color:#363636;
            }
        </style>
    </defs>
    <path class="ColorScheme-Text" style="fill:currentColor; fill-opacity:1; stroke:none" d="M 8 3 L 13 3 L 13 13 L 8 13 L 8 3 Z M 3 3 L 13 3 L 13 9 L 11 7 L 7.65625 10.3438 L 6.3125 9 L 6.2813 9 L 3 12.2813 L 3 3 Z M 2 2 L 2 13.2813 L 2 14 L 14 14 L 14 13 L 14 12 L 14 11 L 14 10 L 14 2 L 2 2 Z M 6 4 C 4.89543 4 4 4.89543 4 6 C 4 7.10457 4.89543 8 6 8 C 7.10457 8 8 7.10457 8 6 C 8 4.89543 7.10457 4 6 4 Z"/>
</svg>

<!DOCTYPE svg>
<svg version="1.1" viewBox="0 0 16 16" xmlns="http://www.w3.org/2000/svg">
<defs>
<style id="current-color-scheme" type="text/css">.ColorScheme-Text {
                color:#363636;
            }</style>
</defs>
<path class="ColorScheme-Text" d="m8 3h5v10h-5v-10zm-5 0h10v6l-2-2-3.3438 3.3438-1.3438-1.3438h-0.0312l-3.2813 3.2813v-9.2813zm-1-1v11.281 0.7187h12v-1-1-1-1-8h-12zm4 2c-1.1046 0-2 0.89543-2 2s0.89543 2 2 2 2-0.89543 2-2-0.89543-2-2-2z" fill="currentColor"/>
</svg>
